frontend/public/svg/interface/headphone.svg

<svg width="159" height="156" viewBox="0 0 159 156" fill="none" xmlns="http://www.w3.org/2000/svg">
<g clip-path="url(#clip0)">
<path d="M158.344 106.168C157.783 95.9832 157.203 85.4509 156.449 75.1031C155.683 64.2057 153.387 53.4699 149.63 43.2113C146.841 35.3901 142.617 28.1573 137.176 21.8828C125.838 9.08111 110.998 1.84879 93.0688 0.387182C81.1677 -0.583772 69.6874 1.90563 60.0264 4.46507C42.6444 9.07451 28.6303 18.7116 18.3746 33.1089C7.76205 48.0059 2.10319 65.2803 1.55407 84.4405C1.50939 85.9817 1.45434 87.5248 1.3993 89.0674C1.21993 94.0969 1.03474 99.2941 1.2439 104.408C1.43363 109.036 2.03583 113.71 2.61862 118.23C2.82 119.79 3.02073 121.35 3.20592 122.91C3.54977 125.807 5.49758 127.649 8.68933 128.097C9.84557 128.236 11.0091 128.306 12.1737 128.306C13.0032 128.322 13.8606 128.339 14.6868 128.41C15.5204 128.502 16.3472 128.648 17.1624 128.845C17.3994 128.897 17.6388 128.948 17.8805 128.999C17.9155 129.57 17.9524 130.121 17.9893 130.656C18.0858 132.08 18.1771 133.425 18.1836 134.746C18.203 138.656 19.3025 142.57 21.6447 147.062C24.6104 152.753 29.6833 155.772 36.3141 155.795H36.3918C43.3457 155.795 48.5222 152.612 51.3649 146.587C53.8948 141.224 55.0228 137.012 55.0228 132.929C55.0975 124.72 54.748 116.511 53.9757 108.337C52.9727 98.8371 46.0142 92.724 36.226 92.724H36.0641C30.6358 92.7615 26.0454 94.5701 22.7895 97.9555C19.5065 101.37 17.865 106.082 18.0437 111.584C18.0592 112.052 18.089 112.523 18.1182 112.997C18.2477 115.004 18.3649 116.908 17.4311 118.799C17.0303 118.77 16.6314 118.756 16.2422 118.742C14.5204 118.678 12.8899 118.624 11.4232 117.373C11.0736 105.662 11.6046 93.7946 12.1789 82.6377C12.6589 73.1884 14.627 63.873 18.0107 55.0363C23.3853 41.0196 31.6136 30.5435 43.1709 23.0102C58.8893 12.7654 76.4542 10.7484 91.5646 10.129C117.346 12.8638 133.415 25.5614 140.689 48.9479C143.551 58.4415 145.259 68.2449 145.775 78.1467L145.912 80.3307C146.279 86.1293 146.657 92.1252 146.872 98.0228C146.905 98.9213 146.961 99.8217 147.019 100.727C147.287 103.431 147.251 106.156 146.909 108.852L140.739 110.38C140.683 110.265 140.629 110.156 140.578 110.05C140.392 109.727 140.254 109.378 140.168 109.014C139.354 103.215 136.089 98.7672 129.587 94.5902C126.571 92.7861 123.083 91.9259 119.573 92.1214C116.064 92.3162 112.693 93.5571 109.895 95.6848C106.184 98.6423 103.9 103.112 103.29 108.609C102.936 112.393 102.859 116.197 103.059 119.992C103.102 121.167 103.141 122.344 103.174 123.522C103.24 128.78 103.593 134.031 104.234 139.251C105.535 148.433 111.75 154.257 121.285 155.231C127.487 155.862 132.469 153.597 135.694 148.673C139.885 142.272 141.295 136.344 140.005 130.552C139.311 127.533 139.497 124.378 140.541 121.46C141.572 121.467 142.584 121.491 143.585 121.516C146.062 121.629 148.542 121.585 151.013 121.387C156.563 120.821 159 117.912 158.683 112.229L158.344 106.168ZM44.5469 122.729C44.521 123.326 44.497 123.912 44.497 124.481C44.4971 124.54 44.5047 124.598 44.5197 124.655C45.8279 129.277 45.3069 134.224 43.0647 138.471L42.8704 138.86C42.4901 139.694 42.0311 140.49 41.4996 141.236C40.7272 142.261 39.7088 143.076 38.5385 143.605C37.3682 144.133 36.0837 144.358 34.8034 144.259C33.557 144.158 32.357 143.741 31.3177 143.045C30.2784 142.35 29.4342 141.401 28.8654 140.288C28.0615 138.832 27.5721 137.224 27.4285 135.567C26.9914 127.966 26.6735 120.181 26.4838 112.429C26.373 107.918 28.6796 105.012 32.9773 104.249C33.6919 104.118 34.4167 104.05 35.1433 104.045C38.5714 104.045 40.8941 105.787 42.2106 109.327C43.2557 112.405 44.0042 115.575 44.4459 118.795C44.6124 120.1 44.6463 121.418 44.5469 122.729ZM128.597 116.496C128.615 117.258 128.61 118.028 128.605 118.8C128.483 121.177 128.681 123.561 129.193 125.886C130.44 130.482 128.617 134.356 126.854 138.1C125.544 140.883 123.805 142.092 121.369 141.903C117.743 141.623 115.573 140.265 114.549 137.627C113.704 135.662 113.164 133.579 112.946 131.451C112.436 122.385 112.182 115.033 112.148 108.312C112.14 106.648 113.143 104.958 114.9 103.674C116.428 102.554 118.266 101.937 120.16 101.91C120.866 101.905 121.568 102.011 122.24 102.224C123.756 102.793 125.203 103.534 126.551 104.432C127.198 104.824 127.864 105.227 128.579 105.629C128.579 106.807 128.572 107.931 128.567 109.017C128.553 111.617 128.541 114.075 128.596 116.496L128.597 116.496Z" fill="black"/>
</g>
<defs>
<clipPath id="clip0">
<rect width="158" height="156" fill="white" transform="translate(0.777344)"/>
</clipPath>
</defs>
</svg>

<svg xmlns="http://www.w3.org/2000/svg" width="159" height="156" fill="none" viewBox="0 0 159 156"><g clip-path="url(#a)"><path fill="#000" d="M158.344 106.168c-.561-10.185-1.141-20.717-1.895-31.065a116.5 116.5 0 0 0-6.819-31.892 66.8 66.8 0 0 0-12.454-21.328C125.838 9.08 110.998 1.849 93.069.387c-11.901-.97-23.382 1.519-33.043 4.078C42.644 9.075 28.63 18.712 18.375 33.11 7.762 48.006 2.103 65.28 1.555 84.44a693 693 0 0 1-.156 4.626c-.18 5.03-.364 10.227-.155 15.341.19 4.628.792 9.302 1.375 13.822.201 1.56.402 3.12.587 4.68.344 2.897 2.292 4.739 5.483 5.187q1.737.209 3.485.209c.83.016 1.687.033 2.513.104q1.251.139 2.475.435.356.078.719.154.052.856.108 1.657c.097 1.424.188 2.769.195 4.09.019 3.91 1.118 7.824 3.46 12.316 2.966 5.691 8.04 8.71 14.67 8.733h.078c6.954 0 12.13-3.183 14.973-9.208 2.53-5.363 3.658-9.575 3.658-13.658a238 238 0 0 0-1.047-24.592c-1.003-9.5-7.962-15.613-17.75-15.613h-.162c-5.428.037-10.019 1.846-13.274 5.231-3.283 3.415-4.925 8.127-4.746 13.629.015.468.045.939.074 1.413.13 2.007.247 3.911-.687 5.802-.4-.029-.8-.043-1.189-.057-1.722-.064-3.352-.118-4.819-1.369-.35-11.711.182-23.578.756-34.735a90 90 0 0 1 5.832-27.602C23.385 41.02 31.614 30.544 43.17 23.01c15.719-10.245 33.284-12.262 48.395-12.88 25.781 2.735 41.85 15.432 49.124 38.819a123.4 123.4 0 0 1 5.086 29.199l.137 2.184c.367 5.798.745 11.794.96 17.692.033.898.089 1.799.147 2.704a36.2 36.2 0 0 1-.11 8.125l-6.17 1.528-.161-.33a3.9 3.9 0 0 1-.41-1.036c-.814-5.799-4.079-10.247-10.581-14.424a17.6 17.6 0 0 0-19.692 1.095c-3.711 2.957-5.995 7.427-6.605 12.924a78 78 0 0 0-.231 11.383 412 412 0 0 1 .115 3.53c.066 5.258.419 10.509 1.06 15.729 1.301 9.182 7.516 15.006 17.051 15.98 6.202.631 11.184-1.634 14.409-6.558 4.191-6.401 5.601-12.329 4.311-18.121a16.2 16.2 0 0 1 .536-9.092c1.031.007 2.043.031 3.044.056 2.477.113 4.957.069 7.428-.129 5.55-.566 7.987-3.475 7.67-9.158zM44.547 122.729c-.026.597-.05 1.183-.05 1.752q0 .089.023.174a18.7 18.7 0 0 1-1.455 13.816l-.195.389a14.4 14.4 0 0 1-1.37 2.376 7.65 7.65 0 0 1-6.696 3.023 7.33 7.33 0 0 1-5.939-3.971 11.9 11.9 0 0 1-1.436-4.721 706 706 0 0 1-.945-23.138c-.111-4.511 2.196-7.417 6.493-8.18.715-.131 1.44-.199 2.166-.204 3.428 0 5.751 1.742 7.068 5.282a51 51 0 0 1 2.235 9.468c.166 1.305.2 2.623.1 3.934m84.05-6.233c.018.762.013 1.532.008 2.304a26.6 26.6 0 0 0 .588 7.086c1.247 4.596-.576 8.47-2.339 12.214-1.31 2.783-3.049 3.992-5.485 3.803-3.626-.28-5.796-1.638-6.82-4.276a21 21 0 0 1-1.603-6.176c-.51-9.066-.764-16.418-.798-23.139-.008-1.664.995-3.354 2.752-4.638a9.1 9.1 0 0 1 5.26-1.764 6.7 6.7 0 0 1 2.08.314 21.2 21.2 0 0 1 4.311 2.208c.647.392 1.313.795 2.028 1.197 0 1.178-.007 2.302-.012 3.388-.014 2.6-.026 5.058.029 7.479z"/></g><defs><clipPath id="a"><path fill="#fff" d="M.777 0h158v156h-158z"/></clipPath></defs></svg>
